X: 1
T: The Christmas Waltz
M: 3/4
L: 1/4
K: F
cd|"Fmaj7"c2C|"Eb13"c"D9"c/c/|"Gm11"cdB|"C13"AB"C7b9"G|
"Fmaj7"A2C|"D9sus"AC"D7#5(#9)"B|"Gm9"G3|"C9"zAG|
"F6"D2F|G2A|"Gm2"B,2C|"C13"D2E|
"Fmaj7"E3|"Dm7"zFE|"G9"FGF|"C9"Gc"C9#5"d|
cd|"Fmaj7"c2C|"F#dim7"c"D9"c/c/|"Gm7"cdB|"Em11b5"AB"A7b9"G|
"Dm9"A2C|"D9"AC>B|"Gm7"G3-|"C9"GAG|
"F6"DF2-|F"Gm/F"G"Fmaj7"A|"Gm2/F"B,2C|D2E|"Am7b5"c2E/G/|"D7b9"zdc
"G9"A>DA-|"C9"AAc|"Fmaj7"A>DA-|"D7b9"Adc
"G9"A>DA|"C9"z/D/_E=E|"F6"F3-|"Dm11"F3-|"Gm7"F3-|"C9sus"F3-x"C9":|

